icons/prisoner_fill.svg

<svg width="48" height="48" viewBox="0 0 48 48" fill="none" xmlns="http://www.w3.org/2000/svg">
<path fill-rule="evenodd" clip-rule="evenodd" d="M16 7C16.9179 7 18.0055 6.80041 19.3012 6.56262L19.5536 6.51634C20.9151 6.26718 22.4527 6 24 6C25.6007 6 27.1709 6.26622 28.541 6.51624L28.915 6.58477C30.1624 6.81377 31.1767 7 32 7C32.5523 7 33 7.44772 33 8V18C33 22.9706 28.9706 27 24 27C19.0294 27 15 22.9706 15 18V8C15 7.44772 15.4477 7 16 7ZM24 25C27.866 25 31 21.866 31 18V15.8369C30.2413 15.7658 29.4225 15.6315 28.604 15.4973C28.4697 15.4753 28.3354 15.4533 28.2014 15.4315C26.8318 15.2094 25.4122 15 24 15C22.6454 15 21.2641 15.2086 19.8942 15.4315L19.586 15.4818C18.7145 15.6245 17.8313 15.769 17 15.8414V18C17 21.866 20.134 25 24 25ZM28.604 12.1164C29.4225 12.2505 30.2413 12.3848 31 12.4559V13.8274C30.3821 13.7609 29.6839 13.6469 28.8984 13.5187L28.5216 13.4573C27.1512 13.2351 25.5897 13 24 13C22.4639 13 20.9354 13.2358 19.5731 13.4574L19.316 13.4993C18.4614 13.6388 17.6919 13.7643 17 13.8333V12.4604C17.8313 12.3881 18.7145 12.2435 19.586 12.1009L19.8942 12.0505C21.2641 11.8277 22.6454 11.619 24 11.619C25.4122 11.619 26.8318 11.8284 28.2014 12.0506C28.3354 12.0723 28.4697 12.0943 28.604 12.1164Z" fill="black"/>
<path fill-rule="evenodd" clip-rule="evenodd" d="M23.4706 29.0047C31.0755 28.8704 42 31.6421 42 36.0405V42H6V36.0405C6 31.6421 16.2579 29.132 23.4706 29.0047ZM37.9506 34C37.1428 33.5466 36.1327 33.1125 34.9553 32.7204C31.5013 31.5703 27.0956 30.941 23.5059 31.0044C20.0724 31.065 15.9173 31.6981 12.6816 32.812C11.6138 33.1796 10.6998 33.5815 9.96476 34H37.9506ZM40 38V40H8V38H40Z" fill="black"/>
</svg>

<svg
  xmlns="http://www.w3.org/2000/svg"
  width="24"
  height="24"
  viewBox="0 0 24 24"
  fill="none"
  stroke="currentColor"
  stroke-width="2"
  stroke-linecap="round"
  stroke-linejoin="round"
>
  <path
    fill-rule="evenodd"
    d="M16 7c.918 0 2.006-.2 3.301-.437l.253-.047C20.915 6.267 22.453 6 24 6c1.6 0 3.17.266 4.541.516l.374.069C30.162 6.814 31.177 7 32 7a1 1 0 0 1 1 1v10a9 9 0 1 1-18 0V8a1 1 0 0 1 1-1m8 18a7 7 0 0 0 7-7v-2.163c-.759-.071-1.578-.205-2.396-.34l-.403-.066C26.831 15.21 25.412 15 24 15c-1.355 0-2.736.209-4.106.431l-.308.05c-.871.143-1.755.288-2.586.36V18a7 7 0 0 0 7 7m4.604-12.884c.819.135 1.637.269 2.396.34v1.371c-.618-.066-1.316-.18-2.102-.308l-.376-.062C27.152 13.235 25.59 13 24 13c-1.536 0-3.065.236-4.427.457l-.257.042c-.855.14-1.624.265-2.316.334V12.46c.831-.072 1.715-.217 2.586-.36l.308-.05c1.37-.222 2.751-.431 4.106-.431 1.412 0 2.832.21 4.201.432z"
    clip-rule="evenodd"
  />
  <path
    fill-rule="evenodd"
    d="M23.47 29.005C31.077 28.87 42 31.642 42 36.04V42H6v-5.96c0-4.398 10.258-6.908 17.47-7.035M37.95 34c-.807-.453-1.817-.888-2.995-1.28-3.454-1.15-7.86-1.779-11.45-1.716-3.433.061-7.588.694-10.823 1.808-1.068.368-1.982.77-2.717 1.188zM40 38v2H8v-2z"
    clip-rule="evenodd"
  />
</svg>
